img/s_3.svg

<svg width="192" height="62" viewBox="0 0 192 62" fill="none" xmlns="http://www.w3.org/2000/svg">
<path d="M3.19203 56H32.808C34.5708 56 36 54.3328 36 52.2759V3.72407C36 1.66741 34.571 0 32.808 0H3.19203C1.42919 0 0 1.66722 0 3.72407V52.2763C0 54.3326 1.42903 56 3.19203 56Z" fill="url(#paint0_linear_1_78)"/>
<ellipse cx="12.1285" cy="32.5535" rx="1.92344" ry="1.96998" fill="#5987AD"/>
<ellipse cx="17.9" cy="32.5535" rx="1.92344" ry="1.96998" fill="#5987AD"/>
<ellipse cx="23.6715" cy="32.5535" rx="1.92344" ry="1.96998" fill="#5987AD"/>
<ellipse cx="12.1285" cy="39.6932" rx="1.92344" ry="1.96998" fill="#5987AD"/>
<ellipse cx="17.9" cy="39.6932" rx="1.92344" ry="1.96998" fill="#5987AD"/>
<ellipse cx="23.6715" cy="39.6932" rx="1.92344" ry="1.96998" fill="#5987AD"/>
<ellipse cx="12.1285" cy="46.8363" rx="1.92344" ry="1.96998" fill="#5987AD"/>
<ellipse cx="17.9" cy="46.8363" rx="1.92344" ry="1.96998" fill="#5987AD"/>
<ellipse cx="23.6715" cy="46.8363" rx="1.92344" ry="1.96998" fill="#5987AD"/>
<rect x="8.16406" y="11.5178" width="19.9244" height="2.38298" rx="1.19149" fill="#273B7A"/>
<rect x="8.16406" y="7.14908" width="19.9244" height="2.38298" rx="1.19149" fill="#273B7A"/>
<path d="M8.66421 24.6242H27.2605C28.2876 24.6242 29.12 23.2904 29.12 21.6455V21.6455C29.12 20.0002 28.2874 18.6668 27.2605 18.6668H8.66421C7.63709 18.6668 6.80469 20.0006 6.80469 21.6455V21.6455C6.80469 23.2908 7.63709 24.6242 8.66421 24.6242Z" fill="#FFC91B"/>
<path fill-rule="evenodd" clip-rule="evenodd" d="M61.2155 24.9667C60.7572 27.0325 60.5078 29.2044 60.5078 31.4497C60.5078 45.0082 69.4342 56 80.4461 56C91.4573 56 100.384 45.0082 100.384 31.4497C100.384 29.2044 100.134 27.0325 99.6767 24.9667H61.2155Z" fill="#524843"/>
<path fill-rule="evenodd" clip-rule="evenodd" d="M90.6587 40.4833C90.6587 45.8394 86.3039 50.1812 80.9332 50.1812C75.5619 50.1812 71.207 45.8394 71.207 40.4833C71.207 35.1265 75.5619 30.7854 80.9332 30.7854C86.3039 30.7854 90.6587 35.1265 90.6587 40.4833" fill="#4C413C"/>
<path fill-rule="evenodd" clip-rule="evenodd" d="M89.6862 40.4838C89.6862 45.3038 85.7672 49.2115 80.9333 49.2115C76.0987 49.2115 72.1797 45.3038 72.1797 40.4838C72.1797 35.6631 76.0987 31.7553 80.9333 31.7553C85.7672 31.7553 89.6862 35.6631 89.6862 40.4838" fill="#8E8883"/>
<path fill-rule="evenodd" clip-rule="evenodd" d="M87.7392 40.4837C87.7392 44.233 84.6916 47.2719 80.9315 47.2719C77.1714 47.2719 74.123 44.233 74.123 40.4837C74.123 36.7345 77.1714 33.6949 80.9315 33.6949C84.6916 33.6949 87.7392 36.7345 87.7392 40.4837" fill="#524843"/>
<path fill-rule="evenodd" clip-rule="evenodd" d="M76.0932 40.7133C76.2344 39.9221 76.9917 39.3955 77.7852 39.5364C78.5781 39.6778 79.1069 40.4328 78.965 41.2234C78.8238 42.0145 78.0665 42.5405 77.273 42.4003C76.4801 42.2589 75.9519 41.5038 76.0932 40.7133" fill="white"/>
<path fill-rule="evenodd" clip-rule="evenodd" d="M78.029 37.4039C78.123 36.8771 78.6279 36.5255 79.1568 36.6192C79.6851 36.7136 80.0377 37.2171 79.9437 37.7439C79.849 38.2713 79.3441 38.6223 78.8152 38.5285C78.287 38.4348 77.9344 37.9307 78.029 37.4039" fill="white"/>
<mask id="mask0_1_78" style="mask-type:luminance" maskUnits="userSpaceOnUse" x="52" y="0" width="57" height="32">
<path fill-rule="evenodd" clip-rule="evenodd" d="M52.7285 0H108.729V31.4148H52.7285V0Z" fill="white"/>
</mask>
<g mask="url(#mask0_1_78)">
<path fill-rule="evenodd" clip-rule="evenodd" d="M108.481 6.44753C95.5676 -1.2693 80.7291 0.0925358 80.7291 0.0925358C80.7291 0.0925358 65.8899 -1.2693 52.9768 6.44753C52.9768 6.44753 50.5981 23.13 60.5663 31.4147C60.5663 31.4147 68.3821 26.4215 80.7291 26.4215C93.0753 26.4215 100.891 31.4147 100.891 31.4147C110.859 23.13 108.481 6.44753 108.481 6.44753" fill="#C2BDB8"/>
</g>
<path fill-rule="evenodd" clip-rule="evenodd" d="M97.268 27.2775C93.2544 25.5738 88.5015 25.9327 84.2319 26.0488C79.8157 26.1689 75.173 25.84 70.7918 26.2752C68.4261 26.5101 66.2251 27.5026 63.9945 28.2426C63.2485 28.4899 62.5018 28.6921 61.7538 28.9257C61.69 28.9512 61.6376 28.9714 61.5865 28.9903C61.2894 29.4347 60.9299 29.7551 60.5387 29.975C60.5246 30.3345 60.5078 30.6921 60.5078 31.0562C60.5078 32.2829 60.5871 33.4881 60.7403 34.6646C62.1033 33.8894 69.4584 30.0154 80.4461 30.0154C91.4324 30.0154 98.7882 33.8894 100.151 34.6646C100.304 33.4881 100.384 32.2829 100.384 31.0562C100.384 30.2216 100.335 29.4014 100.263 28.5897C99.2714 28.1453 98.2754 27.7055 97.268 27.2775" fill="#C2BDB8"/>
<path fill-rule="evenodd" clip-rule="evenodd" d="M80.4478 22.0572C67.7179 22.0572 58.962 26.4325 56.6191 27.7461C57.5863 29.204 58.755 30.5675 60.1839 31.7551C60.1839 31.7551 68.0389 26.7357 80.4478 26.7357C92.8559 26.7357 100.711 31.7551 100.711 31.7551C102.14 30.5675 103.309 29.204 104.276 27.7461C101.933 26.4325 93.1776 22.0572 80.4478 22.0572" fill="#B1AAA4"/>
<path fill-rule="evenodd" clip-rule="evenodd" d="M106.849 16.2386C107.678 13.4525 108.044 10.6705 108.166 8.31047C91.6623 0.13302 73.2794 -0.996866 53.7012 7.91691C53.7997 10.2729 54.1343 13.0901 54.9451 15.9297C73.5405 7.84578 91.039 8.80835 106.849 16.2386" fill="#B1AAA4"/>
<circle cx="31.5" cy="51.5" r="10.5" fill="#43CD7A"/>
<path fill-rule="evenodd" clip-rule="evenodd" d="M36.9972 47.8185C36.6528 47.4742 36.0935 47.4776 35.7534 47.8261L30.4039 53.3079L27.7567 50.5307C27.418 50.1754 26.8531 50.1686 26.506 50.5157C26.1704 50.8513 26.1639 51.3933 26.4914 51.7368L29.7606 55.1665C30.0993 55.5219 30.6642 55.5286 31.0113 55.1815L31.013 55.1798C31.0371 55.1599 31.0603 55.1385 31.0825 55.1157L37.0047 49.0472C37.339 48.7047 37.3356 48.157 36.9972 47.8185Z" fill="white"/>
<circle cx="96.5" cy="51.5" r="10.5" fill="#43CD7A"/>
<path fill-rule="evenodd" clip-rule="evenodd" d="M101.997 47.8185C101.653 47.4742 101.094 47.4776 100.753 47.8261L95.4039 53.3079L92.7567 50.5307C92.418 50.1754 91.8531 50.1686 91.506 50.5157C91.1704 50.8513 91.1639 51.3933 91.4914 51.7368L94.7606 55.1665C95.0993 55.5219 95.6642 55.5286 96.0113 55.1815L96.013 55.1798C96.0371 55.1599 96.0603 55.1385 96.0825 55.1157L102.005 49.0472C102.339 48.7047 102.336 48.157 101.997 47.8185Z" fill="white"/>
<rect x="132.751" y="13.3425" width="15.0817" height="38.6574" rx="1" fill="url(#paint1_linear_1_78)"/>
<path fill-rule="evenodd" clip-rule="evenodd" d="M187.411 6.43663L149.8 16.4754L149.47 27.8862L187.324 17.593L190.039 13.6621C190.206 13.4197 190.258 13.1157 190.181 12.8314L188.633 7.14041C188.489 6.60924 187.942 6.29467 187.411 6.43663ZM126.22 23.8871C125.726 24.0611 125.45 24.5872 125.587 25.0928L127.906 33.6204C128.048 34.1424 128.579 34.4569 129.105 34.3302L131.322 33.7961L131.322 22.0916L126.22 23.8871Z" fill="url(#paint2_linear_1_78)"/>
<path fill-rule="evenodd" clip-rule="evenodd" d="M153.644 21.3683C153.437 21.7296 153.563 22.19 153.924 22.3968L154.454 22.7004C154.815 22.9072 155.276 22.782 155.483 22.4208L157.231 19.3659C157.438 19.0047 157.313 18.5442 156.952 18.3374L156.421 18.0338C156.06 17.827 155.6 17.9523 155.393 18.3135L153.644 21.3683ZM161.406 19.2579C161.199 19.6191 161.325 20.0796 161.686 20.2864L162.216 20.59C162.577 20.7968 163.038 20.6715 163.245 20.3103L164.993 17.2555C165.2 16.8942 165.075 16.4338 164.714 16.227L164.183 15.9234C163.822 15.7166 163.362 15.8418 163.155 16.203L161.406 19.2579ZM169.449 18.1757C169.087 17.9689 168.962 17.5084 169.169 17.1472L170.918 14.0924C171.124 13.7311 171.585 13.6059 171.946 13.8127L172.476 14.1163C172.838 14.3231 172.963 14.7836 172.756 15.1448L171.007 18.1996C170.801 18.5609 170.34 18.6861 169.979 18.4793L169.449 18.1757ZM176.93 15.0367C176.723 15.3979 176.848 15.8584 177.209 16.0652L177.74 16.3688C178.101 16.5756 178.561 16.4504 178.768 16.0891L180.517 13.0343C180.724 12.673 180.598 12.2126 180.237 12.0058L179.707 11.7022C179.345 11.4954 178.885 11.6206 178.678 11.9818L176.93 15.0367Z" fill="#E25C59"/>
<circle cx="148.5" cy="51.5" r="10.5" fill="#43CD7A"/>
<path fill-rule="evenodd" clip-rule="evenodd" d="M153.997 47.8185C153.653 47.4742 153.094 47.4776 152.753 47.8261L147.404 53.3079L144.757 50.5307C144.418 50.1754 143.853 50.1686 143.506 50.5157C143.17 50.8513 143.164 51.3933 143.491 51.7368L146.761 55.1665C147.099 55.5219 147.664 55.5286 148.011 55.1815L148.013 55.1798C148.037 55.1599 148.06 55.1385 148.083 55.1157L154.005 49.0472C154.339 48.7047 154.336 48.157 153.997 47.8185Z" fill="white"/>
<defs>
<linearGradient id="paint0_linear_1_78" x1="-16.715" y1="15.5762" x2="33.9121" y2="58.4646" gradientUnits="userSpaceOnUse">
<stop stop-color="#EEEEEE"/>
<stop offset="1" stop-color="#C6C6C6"/>
</linearGradient>
<linearGradient id="paint1_linear_1_78" x1="121.41" y1="3.5254" x2="153.284" y2="40.929" gradientUnits="userSpaceOnUse">
<stop stop-color="#989E9F"/>
<stop offset="1" stop-color="#5F6566"/>
</linearGradient>
<linearGradient id="paint2_linear_1_78" x1="97.1457" y1="34.3656" x2="104.676" y2="52.6371" gradientUnits="userSpaceOnUse">
<stop stop-color="#CFCCCC"/>
<stop offset="1" stop-color="#C6C6C6"/>
</linearGradient>
</defs>
</svg>

<svg width="192" height="62" fill="none" xmlns="http://www.w3.org/2000/svg"><path d="M3.192 56h29.616C34.571 56 36 54.333 36 52.276V3.724C36 1.667 34.571 0 32.808 0H3.192C1.429 0 0 1.667 0 3.724v48.552C0 54.333 1.429 56 3.192 56Z" fill="url(#a)"/><ellipse cx="12.129" cy="32.553" rx="1.923" ry="1.97" fill="#5987AD"/><ellipse cx="17.9" cy="32.553" rx="1.923" ry="1.97" fill="#5987AD"/><ellipse cx="23.672" cy="32.553" rx="1.923" ry="1.97" fill="#5987AD"/><ellipse cx="12.129" cy="39.693" rx="1.923" ry="1.97" fill="#5987AD"/><ellipse cx="17.9" cy="39.693" rx="1.923" ry="1.97" fill="#5987AD"/><ellipse cx="23.672" cy="39.693" rx="1.923" ry="1.97" fill="#5987AD"/><ellipse cx="12.129" cy="46.836" rx="1.923" ry="1.97" fill="#5987AD"/><ellipse cx="17.9" cy="46.836" rx="1.923" ry="1.97" fill="#5987AD"/><ellipse cx="23.672" cy="46.836" rx="1.923" ry="1.97" fill="#5987AD"/><rect x="8.164" y="11.518" width="19.924" height="2.383" rx="1.191" fill="#273B7A"/><rect x="8.164" y="7.149" width="19.924" height="2.383" rx="1.191" fill="#273B7A"/><path d="M8.664 24.624H27.26c1.028 0 1.86-1.334 1.86-2.979s-.833-2.978-1.86-2.978H8.665c-1.027 0-1.86 1.334-1.86 2.978 0 1.646.833 2.98 1.86 2.98Z" fill="#FFC91B"/><path fill-rule="evenodd" clip-rule="evenodd" d="M61.215 24.967a29.924 29.924 0 0 0-.707 6.483c0 13.558 8.926 24.55 19.938 24.55 11.011 0 19.938-10.992 19.938-24.55 0-2.246-.25-4.418-.707-6.483H61.215Z" fill="#524843"/><path fill-rule="evenodd" clip-rule="evenodd" d="M90.659 40.483c0 5.356-4.355 9.698-9.726 9.698s-9.726-4.342-9.726-9.698c0-5.356 4.355-9.698 9.726-9.698 5.37 0 9.726 4.341 9.726 9.698" fill="#4C413C"/><path fill-rule="evenodd" clip-rule="evenodd" d="M89.686 40.484c0 4.82-3.919 8.727-8.753 8.727s-8.753-3.907-8.753-8.727 3.919-8.729 8.753-8.729 8.753 3.908 8.753 8.729" fill="#8E8883"/><path fill-rule="evenodd" clip-rule="evenodd" d="M87.74 40.484c0 3.749-3.048 6.788-6.808 6.788s-6.809-3.039-6.809-6.788c0-3.75 3.048-6.79 6.808-6.79s6.808 3.04 6.808 6.79" fill="#524843"/><path fill-rule="evenodd" clip-rule="evenodd" d="M76.093 40.713a1.458 1.458 0 0 1 1.692-1.177 1.455 1.455 0 1 1-.512 2.864 1.455 1.455 0 0 1-1.18-1.687M78.029 37.404a.972.972 0 0 1 1.915.34.973.973 0 0 1-1.915-.34" fill="#fff"/><mask id="b" style="mask-type:luminance" maskUnits="userSpaceOnUse" x="52" y="0" width="57" height="32"><path fill-rule="evenodd" clip-rule="evenodd" d="M52.728 0h56.001v31.415h-56V0Z" fill="#fff"/></mask><g mask="url(#b)"><path fill-rule="evenodd" clip-rule="evenodd" d="M108.481 6.448C95.568-1.27 80.729.093 80.729.093S65.89-1.27 52.977 6.448c0 0-2.379 16.682 7.59 24.967 0 0 7.815-4.993 20.162-4.993 12.346 0 20.162 4.993 20.162 4.993 9.968-8.285 7.59-24.967 7.59-24.967" fill="#C2BDB8"/></g><path fill-rule="evenodd" clip-rule="evenodd" d="M97.268 27.277c-4.014-1.703-8.767-1.344-13.036-1.228-4.416.12-9.059-.209-13.44.226-2.366.235-4.567 1.228-6.797 1.968-.746.247-1.493.45-2.241.683a6.752 6.752 0 0 1-.167.064 3.06 3.06 0 0 1-1.048.985c-.014.36-.031.717-.031 1.081 0 1.227.08 2.432.232 3.609 1.363-.776 8.718-4.65 19.706-4.65 10.986 0 18.342 3.874 19.705 4.65a27.98 27.98 0 0 0 .233-3.609c0-.834-.049-1.655-.121-2.466a166.84 166.84 0 0 0-2.995-1.313" fill="#C2BDB8"/><path fill-rule="evenodd" clip-rule="evenodd" d="M80.448 22.057c-12.73 0-21.486 4.376-23.829 5.69.967 1.457 2.136 2.82 3.565 4.008 0 0 7.855-5.02 20.264-5.02 12.408 0 20.263 5.02 20.263 5.02 1.429-1.188 2.598-2.551 3.565-4.009-2.343-1.313-11.098-5.689-23.828-5.689M106.849 16.239c.829-2.787 1.195-5.569 1.317-7.929C91.662.133 73.279-.997 53.701 7.917c.099 2.356.433 5.173 1.244 8.013 18.595-8.084 36.094-7.122 51.904.309" fill="#B1AAA4"/><circle cx="31.5" cy="51.5" r="10.5" fill="#43CD7A"/><path fill-rule="evenodd" clip-rule="evenodd" d="M36.997 47.819a.874.874 0 0 0-1.244.007l-5.35 5.482-2.646-2.777a.874.874 0 0 0-1.266 1.206l3.27 3.43a.874.874 0 0 0 1.25.014l.002-.001a.872.872 0 0 0 .07-.064l5.922-6.069a.874.874 0 0 0-.008-1.228Z" fill="#fff"/><circle cx="96.5" cy="51.5" r="10.5" fill="#43CD7A"/><path fill-rule="evenodd" clip-rule="evenodd" d="M101.997 47.819a.875.875 0 0 0-1.244.007l-5.35 5.482-2.646-2.777a.874.874 0 0 0-1.266 1.206l3.27 3.43a.874.874 0 0 0 1.25.014l.002-.001a.872.872 0 0 0 .07-.064l5.922-6.069a.874.874 0 0 0-.008-1.228Z" fill="#fff"/><rect x="132.751" y="13.342" width="15.082" height="38.657" rx="1" fill="url(#c)"/><path fill-rule="evenodd" clip-rule="evenodd" d="M187.411 6.437 149.8 16.475l-.33 11.411 37.854-10.293 2.715-3.93c.167-.243.219-.547.142-.832l-1.548-5.69a1 1 0 0 0-1.222-.704Zm-61.191 17.45a1 1 0 0 0-.633 1.206l2.319 8.527a1 1 0 0 0 1.199.71l2.217-.534V22.092l-5.102 1.795Z" fill="url(#d)"/><path fill-rule="evenodd" clip-rule="evenodd" d="M153.644 21.368a.754.754 0 0 0 .28 1.029l.53.303a.754.754 0 0 0 1.029-.28l1.748-3.054a.753.753 0 0 0-.279-1.029l-.531-.303a.753.753 0 0 0-1.028.28l-1.749 3.054Zm7.762-2.11a.754.754 0 0 0 .28 1.028l.53.304a.754.754 0 0 0 1.029-.28l1.748-3.054a.753.753 0 0 0-.279-1.029l-.531-.304a.753.753 0 0 0-1.028.28l-1.749 3.055Zm8.043-1.082a.753.753 0 0 1-.28-1.029l1.749-3.055a.753.753 0 0 1 1.028-.28l.53.304a.753.753 0 0 1 .28 1.029l-1.749 3.055a.753.753 0 0 1-1.028.28l-.53-.304Zm7.481-3.14a.753.753 0 0 0 .279 1.03l.531.303a.753.753 0 0 0 1.028-.28l1.749-3.055a.754.754 0 0 0-.28-1.028l-.53-.304a.754.754 0 0 0-1.029.28l-1.748 3.055Z" fill="#E25C59"/><circle cx="148.5" cy="51.5" r="10.5" fill="#43CD7A"/><path fill-rule="evenodd" clip-rule="evenodd" d="M153.997 47.819a.875.875 0 0 0-1.244.007l-5.349 5.482-2.647-2.777a.874.874 0 0 0-1.266 1.206l3.27 3.43a.873.873 0 0 0 1.25.014l.002-.001c.024-.02.047-.041.07-.064l5.922-6.069a.874.874 0 0 0-.008-1.228Z" fill="#fff"/><defs><linearGradient id="a" x1="-16.715" y1="15.576" x2="33.912" y2="58.465" gradientUnits="userSpaceOnUse"><stop stop-color="#EEE"/><stop offset="1" stop-color="#C6C6C6"/></linearGradient><linearGradient id="c" x1="121.41" y1="3.525" x2="153.284" y2="40.929" gradientUnits="userSpaceOnUse"><stop stop-color="#989E9F"/><stop offset="1" stop-color="#5F6566"/></linearGradient><linearGradient id="d" x1="97.146" y1="34.366" x2="104.676" y2="52.637" gradientUnits="userSpaceOnUse"><stop stop-color="#CFCCCC"/><stop offset="1" stop-color="#C6C6C6"/></linearGradient></defs></svg>
